src/lib/packages/icons/src/assets/line/shield-slash.svg

<svg width="24" height="24" viewBox="0 0 24 24" fill="none" xmlns="http://www.w3.org/2000/svg">
<path d="M21.75 6.99998V10.8899C21.75 17.2679 16.8361 21.1789 12.2371 22.7109C12.1601 22.7369 12.08 22.75 12 22.75C11.919 22.75 11.839 22.7369 11.761 22.7109C10.739 22.3669 9.18305 21.7229 7.58105 20.6059C7.24105 20.3689 7.15704 19.901 7.39404 19.562C7.63004 19.223 8.09599 19.138 8.43799 19.376C9.77499 20.308 11.076 20.878 12 21.208C13.832 20.551 20.25 17.7561 20.25 10.8921V6.99998C20.25 6.58598 20.586 6.24998 21 6.24998C21.414 6.24998 21.75 6.58598 21.75 6.99998ZM21.53 3.53L3.53003 21.53C3.38403 21.676 3.192 21.75 3 21.75C2.808 21.75 2.61597 21.677 2.46997 21.53C2.17697 21.237 2.17697 20.762 2.46997 20.469L4.85205 18.0869C3.13205 16.0069 2.25 13.5919 2.25 10.8889V4.99998C2.25 4.64298 2.50203 4.33387 2.85303 4.26487C7.73003 3.28887 9.4601 2.43192 11.6521 1.34592C11.8631 1.24192 12.1469 1.22503 12.3579 1.33103C14.2149 2.26903 15.7169 3.018 19.1179 3.822L20.47 2.46995C20.763 2.17695 21.238 2.17695 21.531 2.46995C21.824 2.76295 21.823 3.237 21.53 3.53ZM5.91406 17.0249L17.875 5.06394C15.092 4.34294 13.5941 3.63287 12.0161 2.83787C9.93611 3.86587 8.13202 4.69604 3.74902 5.61204V10.8899C3.75002 13.1839 4.48206 15.2429 5.91406 17.0249Z" fill="currentColor"/>
</svg>

<svg xmlns="http://www.w3.org/2000/svg" width="24" height="24" fill="none"><path fill="currentColor" d="M21.75 7v3.89c0 6.378-4.914 10.289-9.513 11.82a.741.741 0 0 1-.476 0 16.754 16.754 0 0 1-4.18-2.104.75.75 0 1 1 .857-1.23A15.28 15.28 0 0 0 12 21.208c1.832-.657 8.25-3.452 8.25-10.316V7a.75.75 0 0 1 1.5 0Zm-.22-3.47-18 18a.748.748 0 0 1-1.06 0 .75.75 0 0 1 0-1.061l2.382-2.382c-1.72-2.08-2.602-4.495-2.602-7.198V5c0-.357.252-.666.603-.735 4.877-.976 6.607-1.833 8.8-2.92.21-.103.494-.12.705-.014 1.857.938 3.359 1.687 6.76 2.491L20.47 2.47a.75.75 0 1 1 1.06 1.06ZM5.914 17.025 17.875 5.064c-2.783-.721-4.28-1.431-5.859-2.226-2.08 1.028-3.884 1.858-8.267 2.774v5.278c.001 2.294.733 4.353 2.165 6.135Z"/></svg>
